svgs/solid/brake-warning.svg

<svg xmlns="http://www.w3.org/2000/svg" viewBox="0 0 640 512"><!--! Font Awesome Pro 6.1.2 by @fontawesome - https://fontawesome.com License - https://fontawesome.com/license (Commercial License) Copyright 2022 Fonticons, Inc. --><path d="M544 256C544 379.7 443.7 480 320 480C196.3 480 96 379.7 96 256C96 132.3 196.3 32 320 32C443.7 32 544 132.3 544 256zM344 152C344 138.7 333.3 128 320 128C306.7 128 296 138.7 296 152V264C296 277.3 306.7 288 320 288C333.3 288 344 277.3 344 264V152zM320 384C337.7 384 352 369.7 352 352C352 334.3 337.7 320 320 320C302.3 320 288 334.3 288 352C288 369.7 302.3 384 320 384zM48 255.1C48 310.2 63.83 360.6 91.11 403C98.28 414.2 95.06 429 83.92 436.2C72.77 443.4 57.92 440.1 50.75 428.1C18.63 379.1 0 319.7 0 255.1C0 192.3 18.63 132.9 50.75 83.01C57.92 71.86 72.77 68.65 83.92 75.82C95.06 82.99 98.28 97.85 91.11 108.1C63.83 151.4 48 201.8 48 255.1V255.1zM640 255.1C640 319.7 621.4 379.1 589.3 428.1C582.1 440.1 567.2 443.4 556.1 436.2C544.9 429 541.7 414.2 548.9 403C576.2 360.6 592 310.2 592 255.1C592 201.8 576.2 151.4 548.9 108.1C541.7 97.85 544.9 82.99 556.1 75.82C567.2 68.65 582.1 71.86 589.3 83.01C621.4 132.9 640 192.3 640 255.1V255.1z"/></svg>

<svg xmlns="http://www.w3.org/2000/svg" viewBox="0 0 640 512"><!--! Font Awesome Pro 6.2.0 by @fontawesome - https://fontawesome.com License - https://fontawesome.com/license (Commercial License) Copyright 2022 Fonticons, Inc. --><path d="M544 256c0 123.7-100.3 224-224 224S96 379.7 96 256S196.3 32 320 32s224 100.3 224 224zM344 152c0-13.3-10.7-24-24-24s-24 10.7-24 24V264c0 13.3 10.7 24 24 24s24-10.7 24-24V152zM320 384c17.7 0 32-14.3 32-32s-14.3-32-32-32s-32 14.3-32 32s14.3 32 32 32zM91.1 109C63.8 151.4 48 201.8 48 256s15.8 104.6 43.1 147c7.2 11.1 4 26-7.2 33.2s-26 4-33.2-7.2C18.6 379.1 0 319.7 0 256S18.6 132.9 50.7 83c7.2-11.1 22-14.4 33.2-7.2s14.4 22 7.2 33.2zM589.3 83C621.4 132.9 640 192.3 640 256s-18.6 123.1-50.7 173c-7.2 11.1-22 14.4-33.2 7.2s-14.4-22-7.2-33.2c27.3-42.4 43.1-92.8 43.1-147s-15.8-104.6-43.1-147c-7.2-11.1-4-26 7.2-33.2s26-4 33.2 7.2z"/></svg>
